**harm	**harte	**silbe	**silbe	**rhyme	**timestamp	**phrase	**leadinstrument	**kern
*M4/4	*M4/4	*	*	*	*	*	*	*
*	*	*	*	*	*	*	*	*
*	*	*	*	*	*	*	*	*
*C:	*C:	*	*	*	*	*	*	*C:
*	*	*	*	*	*	*	*	*
*	*	*	*	*	*	*	*	*
1r;	N	.	.	.	0	.	r	1r;
=1	=1	=1	=1	=1	=1	=1	=1	=1
*>Letter>D	*>Letter>D	*>Letter>D	*>Letter>D	*>Letter>D	*>Letter>D	*>Letter>D	*>Letter>D	*>Letter>D
*>Label>Intro	*>Label>Intro	*>Label>Intro	*>Label>Intro	*>Label>Intro	*>Label>Intro	*>Label>Intro	*>Label>Intro	*>Label>Intro
1r	N	.	.	.	0.09	newline	guitar	1r
=2	=2	=2	=2	=2	=2	=2	=2	=2
1r	N	.	.	.	2.308	.	guitar	1r
=3	=3	=3	=3	=3	=3	=3	=3	=3
*>Letter>B	*>Letter>B	*>Letter>B	*>Letter>B	*>Letter>B	*>Letter>B	*>Letter>B	*>Letter>B	*>Letter>B
*>Label>Verse	*>Label>Verse	*>Label>Verse	*>Label>Verse	*>Label>Verse	*>Label>Verse	*>Label>Verse	*>Label>Verse	*>Label>Verse
1im7	C:min7	.	.	.	4.526	newline	.	1C 1e- 1g 1b
=4	=4	=4	=4	=4	=4	=4	=4	=4
1im7	C:min7	.	.	.	6.384	.	.	1C 1e- 1g 1b
=5	=5	=5	=5	=5	=5	=5	=5	=5
1im7	C:min7	.	.	.	8.242	.	.	1C 1e- 1g 1b
=6	=6	=6	=6	=6	=6	=6	=6	=6
1im7	C:min7	.	.	.	10.1	.	.	1C 1e- 1g 1b
=7	=7	=7	=7	=7	=7	=7	=7	=7
1im7	C:min7	.	.	.	11.957	.	.	1C 1e- 1g 1b
=8	=8	=8	=8	=8	=8	=8	=8	=8
1im7	C:min7	.	.	.	13.815	.	.	1C 1e- 1g 1b
=9	=9	=9	=9	=9	=9	=9	=9	=9
1im7	C:min7	.	.	.	15.673	.	.	1C 1e- 1g 1b
=10	=10	=10	=10	=10	=10	=10	=10	=10
1im7	C:min7	.	.	.	17.531	.	.	1C 1e- 1g 1b
=11	=11	=11	=11	=11	=11	=11	=11	=11
1im7	C:min7	.	.	.	19.389	.	.	1C 1e- 1g 1b
=12	=12	=12	=12	=12	=12	=12	=12	=12
1im7	C:min7	.	.	.	21.247	.	.	1C 1e- 1g 1b
=13	=13	=13	=13	=13	=13	=13	=13	=13
1im7	C:min7	.	.	.	23.105	.	.	1C 1e- 1g 1b
=14	=14	=14	=14	=14	=14	=14	=14	=14
1im7	C:min7	.	.	.	24.963	.	.	1C 1e- 1g 1b
=15	=15	=15	=15	=15	=15	=15	=15	=15
1im7	C:min7	.	.	.	26.82	.	.	1C 1e- 1g 1b
=16	=16	=16	=16	=16	=16	=16	=16	=16
1im7	C:min7	.	.	.	28.678	.	.	1C 1e- 1g 1b
=17	=17	=17	=17	=17	=17	=17	=17	=17
1im7	C:min7	.	.	.	30.536	.	.	1C 1e- 1g 1b
=18	=18	=18	=18	=18	=18	=18	=18	=18
1im7	C:min7	.	.	.	32.394	.	.	1C 1e- 1g 1b
.	.	.	.	.	.	.	.	.
.	.	.	.	.	.	.	.	.
.	.	.	Burn	.	.	.	.	.
=19	=19	=19	=19	=19	=19	=19	=19	=19
*>Letter>A	*>Letter>A	*>Letter>A	*>Letter>A	*>Letter>A	*>Letter>A	*>Letter>A	*>Letter>A	*>Letter>A
*>Label>Chorus	*>Label>Chorus	*>Label>Chorus	*>Label>Chorus	*>Label>Chorus	*>Label>Chorus	*>Label>Chorus	*>Label>Chorus	*>Label>Chorus
1IV	F:maj	.	_	.	34.252	newline	voice	1F 1a 1cc
.	.	.	ba-	.	.	.	.	.
.	.	.	-by	.	.	.	.	.
.	.	.	burn	.	.	.	.	.
.	.	.	.	.	.	.	.	.
=20	=20	=20	=20	=20	=20	=20	=20	=20
2-VII	B-:maj	.	.	.	36.104	.	voice	2B- 2dd 2ff
2v	G:min	.	.	.	37.03	.	voice	2G 2b- 2dd
.	.	.	.	.	.	.	.	.
.	.	.	Burn	.	.	.	.	.
=21	=21	=21	=21	=21	=21	=21	=21	=21
1I	C:maj	.	_	.	37.956	.	voice	1C 1e 1g
.	.	.	ba-	.	.	.	.	.
.	.	.	-by	.	.	.	.	.
.	.	.	burn	.	.	.	.	.
.	.	.	.	.	.	.	.	.
=22	=22	=22	=22	=22	=22	=22	=22	=22
1I	C:maj	.	.	.	39.808	.	voice	1C 1e 1g
.	.	.	.	.	.	.	.	.
.	.	.	.	.	.	.	.	.
.	.	.	Burn	.	.	.	.	.
=23	=23	=23	=23	=23	=23	=23	=23	=23
1IV	F:maj	.	_	.	41.66	newline	voice	1F 1a 1cc
.	.	.	ba-	.	.	.	.	.
.	.	.	-by	.	.	.	.	.
.	.	.	burn	.	.	.	.	.
.	.	.	.	.	.	.	.	.
=24	=24	=24	=24	=24	=24	=24	=24	=24
2-VII	B-:maj	.	.	.	43.517	.	voice	2B- 2dd 2ff
2v	G:min	.	.	.	44.445	.	voice	2G 2b- 2dd
.	.	.	.	.	.	.	.	.
.	.	.	Burn	.	.	.	.	.
=25	=25	=25	=25	=25	=25	=25	=25	=25
1I	C:maj	.	_	.	45.374	.	voice	1C 1e 1g
.	.	.	ba-	.	.	.	.	.
.	.	.	-by	.	.	.	.	.
.	.	.	burn?	.	.	.	.	.
.	.	.	.	.	.	.	.	.
=26	=26	=26	=26	=26	=26	=26	=26	=26
2I	C:maj	.	.	.	47.231	.	voice	2C 2e 2g
4vb	G:min/b3	.	_	.	48.159	.	voice	4.g 4.B- 4.dd
.	.	.	?	.	.	.	.	.
4IV7b	F:maj7/3	.	.	.	48.623	.	voice	8f 8A 8cc 8ee
.	.	.	.	.	.	.	.	.
=27	=27	=27	=27	=27	=27	=27	=27	=27
*>Letter>B	*>Letter>B	*>Letter>B	*>Letter>B	*>Letter>B	*>Letter>B	*>Letter>B	*>Letter>B	*>Letter>B
*>Label>Verse	*>Label>Verse	*>Label>Verse	*>Label>Verse	*>Label>Verse	*>Label>Verse	*>Label>Verse	*>Label>Verse	*>Label>Verse
1im7	C:min7	To	.	.	49.088	newline	.	1C 1e- 1g 1b
.	.	.	.	.	.	.	.	.
.	.	my	.	.	.	.	.	.
.	.	sup-	.	.	.	.	.	.
.	.	-rise	.	A	.	.	.	.
=28	=28	=28	=28	=28	=28	=28	=28	=28
1im7	C:min7	_	.	.	50.936	.	.	1C 1e- 1g 1b
.	.	.	.	.	.	.	.	.
.	.	lis-	.	.	.	.	.	.
.	.	-ten	.	.	.	.	.	.
.	.	.	.	.	.	.	.	.
.	.	.	.	.	.	.	.	.
.	.	One	.	.	.	.	.	.
=29	=29	=29	=29	=29	=29	=29	=29	=29
1im7	C:min7	hun-	.	.	52.784	.	.	1C 1e- 1g 1b
.	.	-dred	.	.	.	.	.	.
.	.	.	.	.	.	.	.	.
.	.	stor-	.	.	.	.	.	.
.	.	_	.	.	.	.	.	.
.	.	-ies	.	.	.	.	.	.
.	.	_	.	.	.	.	.	.
.	.	high	.	A	.	.	.	.
=30	=30	=30	=30	=30	=30	=30	=30	=30
1im7	C:min7	_	.	.	54.632	.	.	1C 1e- 1g 1b
.	.	_	.	.	.	.	.	.
.	.	_	.	.	.	.	.	.
.	.	_	.	.	.	.	.	.
.	.	.	.	.	.	.	.	.
.	.	.	.	.	.	.	.	.
=31	=31	=31	=31	=31	=31	=31	=31	=31
1im7	C:min7	Pe-	.	.	56.48	.	.	1C 1e- 1g 1b
.	.	-ople	.	.	.	.	.	.
.	.	_	.	.	.	.	.	.
.	.	_	.	.	.	.	.	.
.	.	get-	.	.	.	.	.	.
.	.	-ting	.	.	.	.	.	.
.	.	loose	.	B	.	.	.	.
=32	=32	=32	=32	=32	=32	=32	=32	=32
1im7	C:min7	_	.	.	58.328	.	.	1C 1e- 1g 1b
.	.	y'all	.	.	.	.	.	.
.	.	.	.	.	.	.	.	.
.	.	.	.	.	.	.	.	.
.	.	Get-	.	.	.	.	.	.
.	.	-ting	.	.	.	.	.	.
=33	=33	=33	=33	=33	=33	=33	=33	=33
1im7	C:min7	down	.	.	60.176	.	.	1C 1e- 1g 1b
.	.	on	.	.	.	.	.	.
.	.	_	.	.	.	.	.	.
.	.	the	.	.	.	.	.	.
.	.	roof	.	B	.	.	.	.
=34	=34	=34	=34	=34	=34	=34	=34	=34
1im7	C:min7	_	.	.	62.024	.	.	1C 1e- 1g 1b
.	.	.	.	.	.	.	.	.
.	.	.	.	.	.	.	.	.
.	.	ya	.	.	.	.	.	.
.	.	hear?	.	.	.	.	.	.
.	.	.	.	.	.	.	.	.
.	.	.	.	.	.	.	.	.
=35	=35	=35	=35	=35	=35	=35	=35	=35
1im7	C:min7	.	.	.	63.873	.	.	1C 1e- 1g 1b
.	.	.	.	.	.	.	.	.
.	.	The	.	.	.	.	.	.
.	.	folks	.	.	.	.	.	.
.	.	are	.	.	.	.	.	.
.	.	scream-	.	.	.	.	.	.
=36	=36	=36	=36	=36	=36	=36	=36	=36
1im7	C:min7	_	.	.	65.721	.	.	1C 1e- 1g 1b
.	.	-in'	.	.	.	.	.	.
.	.	.	.	.	.	.	.	.
.	.	.	.	.	.	.	.	.
=37	=37	=37	=37	=37	=37	=37	=37	=37
1im7	C:min7	.	.	.	67.569	.	.	1C 1e- 1g 1b
.	.	out	.	.	.	.	.	.
.	.	of	.	.	.	.	.	.
.	.	con-	.	.	.	.	.	.
.	.	-trol	.	C	.	.	.	.
=38	=38	=38	=38	=38	=38	=38	=38	=38
1im7	C:min7	_	.	.	69.417	.	.	1C 1e- 1g 1b
.	.	_	.	.	.	.	.	.
.	.	_	.	.	.	.	.	.
.	.	_	.	.	.	.	.	.
.	.	.	.	.	.	.	.	.
.	.	.	.	.	.	.	.	.
.	.	It	.	.	.	.	.	.
.	.	was	.	.	.	.	.	.
.	.	so	.	C	.	.	.	.
=39	=39	=39	=39	=39	=39	=39	=39	=39
1im7	C:min7	_	.	.	71.265	.	.	1C 1e- 1g 1b
.	.	en-	.	.	.	.	.	.
.	.	-ter-	.	.	.	.	.	.
.	.	.	.	.	.	.	.	.
.	.	-tain-	.	.	.	.	.	.
=40	=40	=40	=40	=40	=40	=40	=40	=40
1im7	C:min7	_	.	.	73.113	.	.	1C 1e- 1g 1b
.	.	-in'	.	.	.	.	.	.
.	.	.	.	.	.	.	.	.
.	.	.	.	.	.	.	.	.
.	.	when	.	.	.	.	.	.
.	.	the	.	.	.	.	.	.
=41	=41	=41	=41	=41	=41	=41	=41	=41
1im7	C:min7	boo-	.	.	74.961	.	.	1C 1e- 1g 1b
.	.	-gie	.	.	.	.	.	.
.	.	.	.	.	.	.	.	.
.	.	start-	.	.	.	.	.	.
.	.	-ed	.	.	.	.	.	.
.	.	to	.	.	.	.	.	.
.	.	explode	.	C	.	.	.	.
=42	=42	=42	=42	=42	=42	=42	=42	=42
1im7	C:min7	_	.	.	76.809	.	.	1C 1e- 1g 1b
.	.	.	.	.	.	.	.	.
.	.	I	.	.	.	.	.	.
.	.	heard	.	.	.	.	.	.
.	.	some-	.	.	.	.	.	.
.	.	-bo-	.	.	.	.	.	.
.	.	-dy	.	.	.	.	.	.
.	.	say	.	.	.	.	.	.
.	.	.	Burn	D	.	.	.	.
=43	=43	=43	=43	=43	=43	=43	=43	=43
*>Letter>A	*>Letter>A	*>Letter>A	*>Letter>A	*>Letter>A	*>Letter>A	*>Letter>A	*>Letter>A	*>Letter>A
*>Label>Chorus	*>Label>Chorus	*>Label>Chorus	*>Label>Chorus	*>Label>Chorus	*>Label>Chorus	*>Label>Chorus	*>Label>Chorus	*>Label>Chorus
1IV	F:maj	.	_	.	78.658	newline	.	1F 1a 1cc
.	.	.	ba-	.	.	.	.	.
.	.	.	-by	.	.	.	.	.
.	.	.	burn	D	.	.	.	.
.	.	.	.	.	.	.	.	.
=44	=44	=44	=44	=44	=44	=44	=44	=44
2-VII	B-:maj	Dis-	.	.	80.517	.	.	2B- 2dd 2ff
.	.	-co	.	c	.	.	.	.
.	.	in-	.	.	.	.	.	.
.	.	-fer-	.	D	.	.	.	.
2v	G:min	_	.	.	81.447	.	.	2G 2b- 2dd
.	.	-no	.	c	.	.	.	.
.	.	.	.	.	.	.	.	.
.	.	.	Burn	D	.	.	.	.
=45	=45	=45	=45	=45	=45	=45	=45	=45
1I	C:maj	.	_	.	82.377	.	.	1C 1e 1g
.	.	.	ba-	.	.	.	.	.
.	.	.	-by	.	.	.	.	.
.	.	.	burn	D	.	.	.	.
.	.	Burn	.	D	.	.	.	.
.	.	the	.	.	.	.	.	.
=46	=46	=46	=46	=46	=46	=46	=46	=46
1I	C:maj	mo-	.	.	84.237	.	.	1C 1e 1g
.	.	-ther	.	.	.	.	.	.
.	.	down	.	.	.	.	.	.
.	.	.	.	.	.	.	.	.
.	.	.	.	.	.	.	.	.
.	.	.	Burn	D	.	.	.	.
=47	=47	=47	=47	=47	=47	=47	=47	=47
1IV	F:maj	.	_	.	86.097	newline	.	1F 1a 1cc
.	.	.	ba-	.	.	.	.	.
.	.	.	-by	.	.	.	.	.
.	.	.	burn	D	.	.	.	.
.	.	.	.	.	.	.	.	.
=48	=48	=48	=48	=48	=48	=48	=48	=48
2-VII	B-:maj	dis-	.	.	87.949	.	.	2B- 2dd 2ff
.	.	-co	.	c	.	.	.	.
.	.	in-	.	.	.	.	.	.
2v	G:min	-fer-	.	D	88.875	.	.	2G 2b- 2dd
.	.	-no	.	c	.	.	.	.
.	.	.	.	.	.	.	.	.
.	.	.	Burn	D	.	.	.	.
=49	=49	=49	=49	=49	=49	=49	=49	=49
1I	C:maj	_	_	.	89.801	.	.	1C 1e 1g
.	.	Yeah	.	.	.	.	.	.
.	.	_	.	.	.	.	.	.
.	.	_	ba-	.	.	.	.	.
.	.	.	-by	.	.	.	.	.
.	.	.	burn?	D	.	.	.	.
.	.	Burn	.	D	.	.	.	.
.	.	the	.	.	.	.	.	.
=50	=50	=50	=50	=50	=50	=50	=50	=50
2I	C:maj	mo-	.	.	91.652	.	.	2C 2e 2g
.	.	-ther	.	.	.	.	.	.
.	.	down	.	.	.	.	.	.
.	.	.	.	.	.	.	.	.
4vb	G:min/b3	.	_	.	92.578	.	.	4.g 4.B- 4.dd
.	.	.	?	.	.	.	.	.
4IV7b	F:maj7/3	.	.	.	93.041	.	.	8f 8A 8cc 8ee
.	.	.	.	.	.	.	.	.
=51	=51	=51	=51	=51	=51	=51	=51	=51
*>Letter>B	*>Letter>B	*>Letter>B	*>Letter>B	*>Letter>B	*>Letter>B	*>Letter>B	*>Letter>B	*>Letter>B
*>Label>Verse	*>Label>Verse	*>Label>Verse	*>Label>Verse	*>Label>Verse	*>Label>Verse	*>Label>Verse	*>Label>Verse	*>Label>Verse
1im7	C:min7	Sa-	.	.	93.504	newline	.	1C 1e- 1g 1b
.	.	-tis-	.	.	.	.	.	.
.	.	-fac-	.	(E	.	.	.	.
=52	=52	=52	=52	=52	=52	=52	=52	=52
1im7	C:min7	_	.	.	95.349	.	.	1C 1e- 1g 1b
.	.	-tion	.	e)	.	.	.	.
.	.	.	.	.	.	.	.	.
.	.	.	Hoo	.	.	.	.	.
.	.	.	hoo	.	.	.	.	.
.	.	.	hoo	.	.	.	.	.
=53	=53	=53	=53	=53	=53	=53	=53	=53
1im7	C:min7	came	_	.	97.194	.	.	1C 1e- 1g 1b
.	.	in	.	.	.	.	.	.
.	.	a	.	.	.	.	.	.
.	.	chain	.	.	.	.	.	.
.	.	_	.	.	.	.	.	.
.	.	re-	.	.	.	.	.	.
.	.	-ac-	.	(E	.	.	.	.
=54	=54	=54	=54	=54	=54	=54	=54	=54
1im7	C:min7	_	.	.	99.039	.	.	1C 1e- 1g 1b
.	.	-tion	.	d)	.	.	.	.
.	.	.	.	.	.	.	.	.
.	.	.	.	.	.	.	.	.
.	.	.	.	.	.	.	.	.
.	.	.	Burn-	.	.	.	.	.
=55	=55	=55	=55	=55	=55	=55	=55	=55
1im7	C:min7	.	_	.	100.884	.	.	1C 1e- 1g 1b
.	.	.	-in'	.	.	.	.	.
.	.	I	.	.	.	.	.	.
.	.	could-	.	.	.	.	.	.
.	.	-n't	.	.	.	.	.	.
.	.	get	.	.	.	.	.	.
.	.	e-	.	.	.	.	.	.
=56	=56	=56	=56	=56	=56	=56	=56	=56
1im7	C:min7	-nough	.	F	102.73	.	.	1C 1e- 1g 1b
.	.	.	.	.	.	.	.	.
.	.	.	.	.	.	.	.	.
.	.	.	.	.	.	.	.	.
.	.	so	.	.	.	.	.	.
.	.	I	.	.	.	.	.	.
=57	=57	=57	=57	=57	=57	=57	=57	=57
1im7	C:min7	had	.	.	104.575	.	.	1C 1e- 1g 1b
.	.	to	.	.	.	.	.	.
.	.	self	.	.	.	.	.	.
.	.	.	.	.	.	.	.	.
.	.	de-	.	.	.	.	.	.
.	.	-struct	.	F	.	.	.	.
=58	=58	=58	=58	=58	=58	=58	=58	=58
1im7	C:min7	.	.	.	106.42	.	.	1C 1e- 1g 1b
.	.	.	Hoo	.	.	.	.	.
.	.	.	hoo	.	.	.	.	.
.	.	.	hoo	.	.	.	.	.
=59	=59	=59	=59	=59	=59	=59	=59	=59
1im7	C:min7	.	_	.	108.265	.	.	1C 1e- 1g 1b
.	.	.	.	.	.	.	.	.
.	.	Heat	.	.	.	.	.	.
.	.	was	.	.	.	.	.	.
.	.	on	.	G	.	.	.	.
=60	=60	=60	=60	=60	=60	=60	=60	=60
1im7	C:min7	_	.	.	110.11	.	.	1C 1e- 1g 1b
.	.	_	.	.	.	.	.	.
.	.	_	.	.	.	.	.	.
.	.	_	.	.	.	.	.	.
.	.	.	.	.	.	.	.	.
.	.	.	.	.	.	.	.	.
.	.	ri-	Burn-	.	.	.	.	.
=61	=61	=61	=61	=61	=61	=61	=61	=61
1im7	C:min7	_	_	.	111.955	.	.	1C 1e- 1g 1b
.	.	.	-in'	.	.	.	.	.
.	.	-sing	.	.	.	.	.	.
.	.	to	.	.	.	.	.	.
.	.	the	.	.	.	.	.	.
.	.	.	.	.	.	.	.	.
.	.	top	.	G	.	.	.	.
=62	=62	=62	=62	=62	=62	=62	=62	=62
1im7	C:min7	.	.	.	113.8	.	.	1C 1e- 1g 1b
.	.	Uh	.	.	.	.	.	.
.	.	.	.	.	.	.	.	.
.	.	.	.	.	.	.	.	.
=63	=63	=63	=63	=63	=63	=63	=63	=63
1im7	C:min7	.	.	.	115.646	.	.	1C 1e- 1g 1b
.	.	Ev-	.	.	.	.	.	.
.	.	-ery-	.	.	.	.	.	.
.	.	-bo-	.	.	.	.	.	.
.	.	-dy	.	.	.	.	.	.
.	.	going	.	.	.	.	.	.
=64	=64	=64	=64	=64	=64	=64	=64	=64
1im7	C:min7	strong	.	G	117.491	.	.	1C 1e- 1g 1b
.	.	.	.	.	.	.	.	.
.	.	.	.	.	.	.	.	.
.	.	.	.	.	.	.	.	.
.	.	.	.	.	.	.	.	.
.	.	that	.	.	.	.	.	.
=65	=65	=65	=65	=65	=65	=65	=65	=65
1im7	C:min7	_	.	.	119.336	.	.	1C 1e- 1g 1b
.	.	is	.	.	.	.	.	.
.	.	when	.	.	.	.	.	.
.	.	my	.	.	.	.	.	.
.	.	spark	.	.	.	.	.	.
.	.	.	.	.	.	.	.	.
.	.	got	.	G	.	.	.	.
.	.	.	.	.	.	.	.	.
=66	=66	=66	=66	=66	=66	=66	=66	=66
1im7	C:min7	hot	.	G	121.181	.	.	1C 1e- 1g 1b
.	.	I	.	.	.	.	.	.
.	.	heard	.	.	.	.	.	.
.	.	some-	.	.	.	.	.	.
.	.	-bo-	.	.	.	.	.	.
.	.	-dy	.	.	.	.	.	.
.	.	say	.	.	.	.	.	.
.	.	.	Burn	D	.	.	.	.
=67	=67	=67	=67	=67	=67	=67	=67	=67
*>Letter>A	*>Letter>A	*>Letter>A	*>Letter>A	*>Letter>A	*>Letter>A	*>Letter>A	*>Letter>A	*>Letter>A
*>Label>Chorus	*>Label>Chorus	*>Label>Chorus	*>Label>Chorus	*>Label>Chorus	*>Label>Chorus	*>Label>Chorus	*>Label>Chorus	*>Label>Chorus
1IV	F:maj	.	_	.	123.026	newline	.	1F 1a 1cc
.	.	.	ba-	.	.	.	.	.
.	.	.	-by	.	.	.	.	.
.	.	.	burn	D	.	.	.	.
.	.	.	.	.	.	.	.	.
=68	=68	=68	=68	=68	=68	=68	=68	=68
2-VII	B-:maj	Dis-	.	.	124.883	.	.	2B- 2dd 2ff
.	.	-co	.	c	.	.	.	.
.	.	in-	.	.	.	.	.	.
.	.	-fer-	.	D	.	.	.	.
2v	G:min	_	.	.	125.811	.	.	2G 2b- 2dd
.	.	-no	.	c	.	.	.	.
.	.	.	.	.	.	.	.	.
.	.	.	Burn	D	.	.	.	.
=69	=69	=69	=69	=69	=69	=69	=69	=69
1I	C:maj	.	_	.	126.74	.	.	1C 1e 1g
.	.	.	ba-	.	.	.	.	.
.	.	.	-by	.	.	.	.	.
.	.	.	burn	D	.	.	.	.
.	.	burn	.	D	.	.	.	.
.	.	_	.	.	.	.	.	.
.	.	that	.	.	.	.	.	.
=70	=70	=70	=70	=70	=70	=70	=70	=70
1I	C:maj	.	.	.	128.596	.	.	1C 1e 1g
.	.	mo-	.	.	.	.	.	.
.	.	-ther	.	.	.	.	.	.
.	.	down	.	.	.	.	.	.
.	.	_	.	.	.	.	.	.
.	.	ya'll	.	.	.	.	.	.
.	.	.	.	.	.	.	.	.
.	.	.	Burn	D	.	.	.	.
=71	=71	=71	=71	=71	=71	=71	=71	=71
1IV	F:maj	.	_	.	130.453	newline	.	1F 1a 1cc
.	.	.	ba-	.	.	.	.	.
.	.	.	-by	.	.	.	.	.
.	.	.	burn	D	.	.	.	.
.	.	.	.	.	.	.	.	.
=72	=72	=72	=72	=72	=72	=72	=72	=72
2-VII	B-:maj	dis-	.	.	132.304	.	.	2B- 2dd 2ff
.	.	-co	.	c	.	.	.	.
.	.	in-	.	.	.	.	.	.
.	.	-fer-	.	D	.	.	.	.
2v	G:min	_	.	.	133.229	.	.	2G 2b- 2dd
.	.	-no	.	c	.	.	.	.
.	.	.	.	.	.	.	.	.
.	.	.	Burn	D	.	.	.	.
=73	=73	=73	=73	=73	=73	=73	=73	=73
1I	C:maj	_	_	.	134.155	.	.	1C 1e 1g
.	.	.	ba-	.	.	.	.	.
.	.	Yeah	-by	.	.	.	.	.
.	.	_	.	.	.	.	.	.
.	.	.	burn?	D	.	.	.	.
.	.	.	.	.	.	.	.	.
.	.	.	.	.	.	.	.	.
=74	=74	=74	=74	=74	=74	=74	=74	=74
2I	C:maj	mo-	.	.	136.006	.	.	2C 2e 2g
.	.	-ther	.	.	.	.	.	.
.	.	down	.	.	.	.	.	.
4vb	G:min/b3	.	_	.	136.931	.	.	4.g 4.B- 4.dd
.	.	.	?	.	.	.	.	.
4IV7b	F:maj7/3	.	.	.	137.394	.	.	8f 8A 8cc 8ee
.	.	.	.	.	.	.	.	.
=75	=75	=75	=75	=75	=75	=75	=75	=75
*>Letter>C	*>Letter>C	*>Letter>C	*>Letter>C	*>Letter>C	*>Letter>C	*>Letter>C	*>Letter>C	*>Letter>C
*>Label>Bridge	*>Label>Bridge	*>Label>Bridge	*>Label>Bridge	*>Label>Bridge	*>Label>Bridge	*>Label>Bridge	*>Label>Bridge	*>Label>Bridge
1-VII7	B-:maj7	.	.	.	137.857	newline	.	1B- 1dd 1ff 1aa
.	.	.	Up	.	.	.	.	.
.	.	.	a-	.	.	.	.	.
.	.	.	-bove	.	.	.	.	.
.	.	.	my	.	.	.	.	.
=76	=76	=76	=76	=76	=76	=76	=76	=76
1-VII7	B-:maj7	.	head	.	139.742	.	.	1B- 1dd 1ff 1aa
.	.	.	I	.	.	.	.	.
.	.	.	hear	.	.	.	.	.
=77	=77	=77	=77	=77	=77	=77	=77	=77
1I	C:maj	.	mu-	.	141.627	.	.	1C 1e 1g
.	.	.	-sic	.	.	.	.	.
.	.	.	in	.	.	.	.	.
.	.	.	the	.	.	.	.	.
.	.	.	air	H	.	.	.	.
.	.	I	.	.	.	.	.	.
.	.	love	.	.	.	.	.	.
.	.	mu-	.	.	.	.	.	.
=78	=78	=78	=78	=78	=78	=78	=78	=78
1I	C:maj	_	_	.	143.511	.	.	1C 1e 1g
.	.	-sic	.	.	.	.	.	.
.	.	.	.	.	.	.	.	.
=79	=79	=79	=79	=79	=79	=79	=79	=79
1-VII7	B-:maj7	.	.	.	145.396	newline	.	1B- 1dd 1ff 1aa
.	.	.	That	.	.	.	.	.
.	.	.	makes	.	.	.	.	.
.	.	.	me	.	.	.	.	.
=80	=80	=80	=80	=80	=80	=80	=80	=80
1-VII7	B-:maj7	.	know	.	147.275	.	.	1B- 1dd 1ff 1aa
.	.	.	there's	H	.	.	.	.
.	.	.	a	.	.	.	.	.
=81	=81	=81	=81	=81	=81	=81	=81	=81
1I	C:maj	.	par-	.	149.154	.	.	1C 1e 1g
.	.	.	-ty	.	.	.	.	.
.	.	.	some-	.	.	.	.	.
.	.	.	_	.	.	.	.	.
.	.	.	-where	H	.	.	.	.
=82	=82	=82	=82	=82	=82	=82	=82	=82
1v	G:min	.	_	.	151.032	.	.	1G 1b- 1dd
=83	=83	=83	=83	=83	=83	=83	=83	=83
1v	G:min	.	.	.	152.911	.	.	1G 1b- 1dd
=84	=84	=84	=84	=84	=84	=84	=84	=84
*>Letter>B	*>Letter>B	*>Letter>B	*>Letter>B	*>Letter>B	*>Letter>B	*>Letter>B	*>Letter>B	*>Letter>B
*>Label>Verse	*>Label>Verse	*>Label>Verse	*>Label>Verse	*>Label>Verse	*>Label>Verse	*>Label>Verse	*>Label>Verse	*>Label>Verse
1im7	C:min7	Sa-	.	.	154.789	newline	.	1C 1e- 1g 1b
.	.	-tis-	.	.	.	.	.	.
.	.	-fac-	.	(E	.	.	.	.
=85	=85	=85	=85	=85	=85	=85	=85	=85
1im7	C:min7	_	.	.	156.648	.	.	1C 1e- 1g 1b
.	.	-tion	.	d)	.	.	.	.
.	.	.	.	.	.	.	.	.
.	.	.	.	.	.	.	.	.
=86	=86	=86	=86	=86	=86	=86	=86	=86
1im7	C:min7	came	.	.	158.507	.	.	1C 1e- 1g 1b
.	.	in	.	.	.	.	.	.
.	.	a	.	.	.	.	.	.
.	.	chain	.	.	.	.	.	.
.	.	_	.	.	.	.	.	.
.	.	re-	.	.	.	.	.	.
.	.	-ac-	.	(E	.	.	.	.
=87	=87	=87	=87	=87	=87	=87	=87	=87
1im7	C:min7	_	.	.	160.366	.	.	1C 1e- 1g 1b
.	.	-tion	.	d)	.	.	.	.
.	.	.	.	.	.	.	.	.
.	.	.	.	.	.	.	.	.
.	.	ya	.	.	.	.	.	.
.	.	hear?	.	.	.	.	.	.
.	.	.	.	.	.	.	.	.
.	.	.	.	.	.	.	.	.
=88	=88	=88	=88	=88	=88	=88	=88	=88
1im7	C:min7	.	.	.	162.225	.	.	1C 1e- 1g 1b
.	.	.	.	.	.	.	.	.
.	.	I	.	.	.	.	.	.
.	.	could-	.	.	.	.	.	.
.	.	-n't	.	.	.	.	.	.
.	.	get	.	.	.	.	.	.
.	.	e-	.	.	.	.	.	.
=89	=89	=89	=89	=89	=89	=89	=89	=89
1im7	C:min7	-nough	.	F	164.084	.	.	1C 1e- 1g 1b
.	.	.	.	.	.	.	.	.
.	.	.	.	.	.	.	.	.
.	.	.	.	.	.	.	.	.
.	.	so	.	.	.	.	.	.
.	.	I	.	.	.	.	.	.
=90	=90	=90	=90	=90	=90	=90	=90	=90
1im7	C:min7	had	.	.	165.943	.	.	1C 1e- 1g 1b
.	.	to	.	.	.	.	.	.
.	.	self	.	.	.	.	.	.
.	.	.	.	.	.	.	.	.
.	.	de-	.	.	.	.	.	.
.	.	-struct	.	F	.	.	.	.
=91	=91	=91	=91	=91	=91	=91	=91	=91
1im7	C:min7	.	.	.	167.802	.	.	1C 1e- 1g 1b
.	.	uh	.	.	.	.	.	.
.	.	.	.	.	.	.	.	.
.	.	.	.	.	.	.	.	.
=92	=92	=92	=92	=92	=92	=92	=92	=92
1im7	C:min7	.	.	.	169.661	.	.	1C 1e- 1g 1b
.	.	the	.	.	.	.	.	.
.	.	Heat	.	.	.	.	.	.
.	.	was	.	.	.	.	.	.
.	.	on	.	G	.	.	.	.
=93	=93	=93	=93	=93	=93	=93	=93	=93
1im7	C:min7	_	.	.	171.52	.	.	1C 1e- 1g 1b
.	.	_	.	.	.	.	.	.
.	.	_	.	.	.	.	.	.
.	.	_	.	.	.	.	.	.
.	.	.	.	.	.	.	.	.
.	.	.	.	.	.	.	.	.
.	.	ri-	.	.	.	.	.	.
=94	=94	=94	=94	=94	=94	=94	=94	=94
1im7	C:min7	_	.	.	173.379	.	.	1C 1e- 1g 1b
.	.	-sing	.	.	.	.	.	.
.	.	to	.	.	.	.	.	.
.	.	the	.	.	.	.	.	.
.	.	.	.	.	.	.	.	.
.	.	top	.	G	.	.	.	.
=95	=95	=95	=95	=95	=95	=95	=95	=95
1im7	C:min7	.	.	.	175.237	.	.	1C 1e- 1g 1b
.	.	Uh	.	.	.	.	.	.
.	.	.	.	.	.	.	.	.
.	.	.	.	.	.	.	.	.
=96	=96	=96	=96	=96	=96	=96	=96	=96
1im7	C:min7	.	.	.	177.096	.	.	1C 1e- 1g 1b
.	.	Ev-	.	.	.	.	.	.
.	.	-ery-	.	.	.	.	.	.
.	.	-bo-	.	.	.	.	.	.
.	.	-dy	.	.	.	.	.	.
.	.	going	.	.	.	.	.	.
=97	=97	=97	=97	=97	=97	=97	=97	=97
1im7	C:min7	strong	.	G	178.955	.	.	1C 1e- 1g 1b
.	.	.	.	.	.	.	.	.
.	.	.	.	.	.	.	.	.
.	.	.	.	.	.	.	.	.
.	.	.	.	.	.	.	.	.
.	.	that	.	.	.	.	.	.
=98	=98	=98	=98	=98	=98	=98	=98	=98
1im7	C:min7	_	.	.	180.814	.	.	1C 1e- 1g 1b
.	.	is	.	.	.	.	.	.
.	.	when	.	.	.	.	.	.
.	.	my	.	.	.	.	.	.
.	.	spark	.	.	.	.	.	.
.	.	.	.	.	.	.	.	.
.	.	got	.	G	.	.	.	.
.	.	.	.	.	.	.	.	.
=99	=99	=99	=99	=99	=99	=99	=99	=99
1im7	C:min7	hot	.	G	182.673	.	.	1C 1e- 1g 1b
.	.	I	.	.	.	.	.	.
.	.	heard	.	.	.	.	.	.
.	.	some-	.	.	.	.	.	.
.	.	-bo-	.	.	.	.	.	.
.	.	-dy	.	.	.	.	.	.
.	.	say	.	.	.	.	.	.
.	.	.	Burn	D	.	.	.	.
=100	=100	=100	=100	=100	=100	=100	=100	=100
*>Letter>A	*>Letter>A	*>Letter>A	*>Letter>A	*>Letter>A	*>Letter>A	*>Letter>A	*>Letter>A	*>Letter>A
*>Label>Chorus	*>Label>Chorus	*>Label>Chorus	*>Label>Chorus	*>Label>Chorus	*>Label>Chorus	*>Label>Chorus	*>Label>Chorus	*>Label>Chorus
1IV	F:maj	.	_	.	184.532	newline	.	1F 1a 1cc
.	.	.	ba-	.	.	.	.	.
.	.	.	-by	.	.	.	.	.
.	.	.	burn	D	.	.	.	.
.	.	.	.	.	.	.	.	.
=101	=101	=101	=101	=101	=101	=101	=101	=101
2-VII	B-:maj	Dis-	.	.	186.431	.	.	2B- 2dd 2ff
.	.	-co	.	c	.	.	.	.
.	.	in-	.	.	.	.	.	.
.	.	-fer-	.	(D	.	.	.	.
2v	G:min	_	.	.	187.38	.	.	2G 2b- 2dd
.	.	-no	.	c)	.	.	.	.
.	.	.	.	.	.	.	.	.
.	.	.	Burn	D	.	.	.	.
=102	=102	=102	=102	=102	=102	=102	=102	=102
1I	C:maj	.	_	.	188.33	.	.	1C 1e 1g
.	.	.	ba-	.	.	.	.	.
.	.	.	-by	.	.	.	.	.
.	.	.	burn	D	.	.	.	.
.	.	burn	.	D	.	.	.	.
.	.	_	.	.	.	.	.	.
.	.	that	.	.	.	.	.	.
=103	=103	=103	=103	=103	=103	=103	=103	=103
1I	C:maj	.	.	.	190.228	.	.	1C 1e 1g
.	.	mo-	.	.	.	.	.	.
.	.	-ther	.	.	.	.	.	.
.	.	down	.	.	.	.	.	.
.	.	_	.	.	.	.	.	.
.	.	.	.	.	.	.	.	.
.	.	.	.	.	.	.	.	.
.	.	.	Burn	D	.	.	.	.
=104	=104	=104	=104	=104	=104	=104	=104	=104
1IV	F:maj	.	_	.	192.127	newline	.	1F 1a 1cc
.	.	.	ba-	.	.	.	.	.
.	.	.	-by	.	.	.	.	.
.	.	.	burn	D	.	.	.	.
.	.	.	.	.	.	.	.	.
=105	=105	=105	=105	=105	=105	=105	=105	=105
2-VII	B-:maj	dis-	.	.	194.036	.	.	2B- 2dd 2ff
.	.	-co	.	c	.	.	.	.
.	.	in-	.	.	.	.	.	.
.	.	-fer-	.	(D	.	.	.	.
2v	G:min	_	.	.	194.991	.	.	2G 2b- 2dd
.	.	-no	.	c)	.	.	.	.
.	.	.	.	.	.	.	.	.
.	.	.	Burn	D	.	.	.	.
=106	=106	=106	=106	=106	=106	=106	=106	=106
1I	C:maj	_	_	.	195.945	.	.	1C 1e 1g
.	.	Yeah	.	.	.	.	.	.
.	.	_	.	.	.	.	.	.
.	.	.	ba-	.	.	.	.	.
.	.	.	-by	.	.	.	.	.
.	.	.	burn	D	.	.	.	.
.	.	Burn	.	d	.	.	.	.
.	.	the	.	.	.	.	.	.
=107	=107	=107	=107	=107	=107	=107	=107	=107
1I	C:maj	mo-	.	.	197.854	.	.	1C 1e 1g
.	.	-ther	.	.	.	.	.	.
.	.	down	.	.	.	.	.	.
.	.	.	.	.	.	.	.	.
.	.	.	.	.	.	.	.	.
.	.	.	Burn	D	.	.	.	.
=108	=108	=108	=108	=108	=108	=108	=108	=108
*>Letter>A	*>Letter>A	*>Letter>A	*>Letter>A	*>Letter>A	*>Letter>A	*>Letter>A	*>Letter>A	*>Letter>A
*>Label>Chorus	*>Label>Chorus	*>Label>Chorus	*>Label>Chorus	*>Label>Chorus	*>Label>Chorus	*>Label>Chorus	*>Label>Chorus	*>Label>Chorus
1IV	F:maj	.	_	.	199.763	newline	.	1F 1a 1cc
.	.	.	ba-	.	.	.	.	.
.	.	.	-by	.	.	.	.	.
.	.	.	burn	D	.	.	.	.
.	.	Ah	.	.	.	.	.	.
.	.	.	.	.	.	.	.	.
=109	=109	=109	=109	=109	=109	=109	=109	=109
2-VII	B-:maj	_	.	.	201.655	.	.	2B- 2dd 2ff
.	.	hey	.	.	.	.	.	.
2v	G:min	.	.	.	202.6	.	.	2G 2b- 2dd
.	.	.	.	.	.	.	.	.
.	.	.	Burn	D	.	.	.	.
=110	=110	=110	=110	=110	=110	=110	=110	=110
1I	C:maj	.	_	.	203.546	.	.	1C 1e 1g
.	.	.	ba-	.	.	.	.	.
.	.	.	-by	.	.	.	.	.
.	.	.	burn	D	.	.	.	.
.	.	Burn	.	D	.	.	.	.
.	.	the	.	.	.	.	.	.
=111	=111	=111	=111	=111	=111	=111	=111	=111
1I	C:maj	mo-	.	.	205.437	.	.	1C 1e 1g
.	.	-ther	.	.	.	.	.	.
.	.	down	.	.	.	.	.	.
.	.	.	.	.	.	.	.	.
.	.	.	.	.	.	.	.	.
.	.	.	Burn	D	.	.	.	.
=112	=112	=112	=112	=112	=112	=112	=112	=112
1IV	F:maj	.	_	.	207.329	newline	guitar voice	1F 1a 1cc
.	.	.	ba-	.	.	.	.	.
.	.	.	-by	.	.	.	.	.
.	.	.	burn	D	.	.	.	.
.	.	.	.	.	.	.	.	.
=113	=113	=113	=113	=113	=113	=113	=113	=113
2-VII	B-:maj	Dis-	.	.	208.958	.	guitar voice	2B- 2dd 2ff
.	.	-co	.	c	.	.	.	.
.	.	in-	.	.	.	.	.	.
.	.	-fer-	.	(D	.	.	.	.
2v	G:min	_	.	.	209.773	.	guitar voice	2G 2b- 2dd
.	.	-no	.	c)	.	.	.	.
.	.	.	.	.	.	.	.	.
.	.	.	Burn	D	.	.	.	.
=114	=114	=114	=114	=114	=114	=114	=114	=114
1I	C:maj	.	_	.	210.587	.	guitar voice	1C 1e 1g
.	.	.	ba-	.	.	.	.	.
.	.	.	-by	.	.	.	.	.
.	.	.	burn	D	.	.	.	.
.	.	.	.	.	.	.	.	.
=115	=115	=115	=115	=115	=115	=115	=115	=115
1I	C:maj	.	.	.	212.216	.	guitar voice	1C 1e 1g
1r;	N	.	.	.	213.846	.	r	1r;
1r;	N	.	.	.	217.372	.	r	1r;
*-	*-	*-	*-	*-	*-	*-	*-	*-
!!!BillboardChartDate: 1977/03/12, 1977/04/16
!!!BillboardPeak: 11, 11
!!!BillboardWeeksOnChart: 29, 29
!!!COC: The Trammps
!!!ENC: Nathaniel Condit-Schultz
!!!EST: Awating manual error checking and editing.
!!!OTL: Disco Inferno
!!!RDF**harte: Chris Harte's syntax, used by MIREX
!!!RDF**harmony: **recip + pitch class of root + harmonic quality
!!!RDF**leadinstrument: original McGill primary instrumentation annotation
!!!RDF**phrase: newline = linebreak in original McGill transcription
!!!RDF**timestamp: McGill audio timestamp in seconds
!!!RDT: 2017/01/12/
!!!SampleActualRank: 79, 53
!!!SampleID#: 546, 1016
!!!SampleTargetRank: 80, 54
!!!MBID: fe1bbf77-90a5-4d5d-9a7e-b002966510c8
